X:1
T:Totland, LM
T:Totland, LM
T:John Stainer (1840-1901)
T:Public Domain Courtesy of the Cyber Hymnal™
C:John Stainer (1840-1901)
Z:Public Domain
Z:Courtesy of the Cyber Hymnal™
%%score ( 1 2 ) ( 3 4 )
L:1/8
Q:1/4=106
M:4/4
K:D
V:1 treble 
V:2 treble 
V:3 bass 
V:4 bass 
V:1
 [DF]2 | [DA]2 [B,B]2 [CA]2 [A,C]2 | [A,D]2 [A,E]2 [DF]2 [CA]2 | [DA]2 B2 A2 [Ad]2 | %4
 [Ac]2 [^GB]2 A2 [EA]2 | [Ae]2 [Ec]2 [Dd]2 [^DF]2 | [EG]2 [FB]2 [EA]2 [CG]2 | %7
 [DF]2 [CB]2 [DA]2 D2 | [A,D]2 [CE]2 D2 |] %9
V:2
 x2 | x8 | x8 | x2 (DE) A2 x2 | x4 A2 x2 | x8 | x8 | x6 (A,B,) | x4 D2 |] %9
V:3
 [D,A,]2 | [D,F,]2 (G,F,) [A,,E,]2 (A,G,) | [B,,F,]2 [C,E,]2 [D,A,]2 [E,G,]2 | %3
 F,2 (B,C) [^F,D]2 [=F,D]2 | [E,E]2 (ED) [A,C]2 [A,C]2 | [G,C]2 [G,A,]2 [F,A,]2 [F,A,]2 | %6
 [E,B,]2 [D,B,]2 [C,E,]2 [A,,E,]2 | [D,F,]2 [E,G,]2 [F,A,]2 ([F,,A,][G,,G,]) | %8
 [A,,F,]2 [A,,G,]2 [D,F,]2 |] %9
V:4
 x2 | x2 G,,2 x A,,2 x | x8 | =F,2 G,2 x4 | x2 E,2 x4 | x8 | x8 | x8 | x6 |] %9

